X:1
T:Title
%%score { ( 1 3 ) | ( 2 4 ) }
L:1/8
Q:1/4=100
M:6/8
K:Ab
V:1 treble nm="Grand Piano"
V:3 treble 
V:2 bass 
V:4 bass 
V:1
 [CE]2 [CF] [CA]2 [DB] | .c3 z3 | [Ec]2 [EA] [Fd]2 F | F [CE]2- [CE] z z | [CE]2 [CF] [CA]2 [DB] | %5
w: Charlie~D.~Tillman * * *|||||
 .c3 z3 | [=Dc]2 [DB] [DB]2 [Dc] |[M:15/16] Be/- e3- e z/ z3/2 |[M:3/4] e3 e3 | c6 | %10
w: |||||
 e2 e [_Ge]2 [Ge] | [Fd]6 | [DF]2 [EG] [FA]2 [DF] | [DF] [CE]3 z2 | [=Dc]2 [DB] [DB]2 [Dc] | %15
w: |||||
 Be- e3 c/d/ | e2 f e2 c |[M:7/8] B A2 B _c3 |[M:3/4] [Ec] [Ae]2 [EGc]2 [DGB] | [CEA]6 |] %20
w: |||||
V:2
 [A,,A,]2 [A,,A,] [A,,E,]2 [A,,E,] | [A,,A,]2 [A,,A,] [A,,A,]3 | [A,,A,]2 [C,A,] [D,A,]2 [F,A,D] | %3
 [A,D] [A,,A,]2- [A,,A,] z z | [A,,A,]2 [A,,A,] [A,,E,]2 [A,,E,] | [A,,A,]2 [A,,A,] [A,,A,]3 | %6
 [B,,A,]2 [B,,A,] [B,,F,]2 [B,,A,] |[M:15/16] [E,G,E][G,B,E]/- [G,B,E]3- [G,B,E] z/ z3/2 | %8
[M:3/4][K:treble] [A,CE]3 [A,CE]3 | [A,EA]6 | [A,C_G]2 [A,CG][K:bass] [C,A,]2 [C,A,] | [D,A,]6 | %12
 [D,A,]2 [D,A,] [D,A,]2 [D,A,] | [A,,A,] [A,,A,]3 z2 | [B,,A,]2 [B,,A,] [B,,F,]2 [B,,A,] | %15
 z2 z2 z [A,E] | [A,CE]2 [A,DA] [A,CA]2[K:bass] [A,E] | %17
[M:7/8] [E,G,D] [F,A,C]2 [F,A,D] [=E,A,=D]3 |[M:3/4] [E,A,] [E,C]2 E,2 E, | A,,6 |] %20
V:3
 x6 | EA[Fc] [Ec]3 | x6 | x6 | x6 | EA[Fc] [Ec]3 | x6 |[M:15/16] x15/2 |[M:3/4] x6 | x6 | x6 | x6 | %12
 x6 | x6 | x6 | x6 | x6 |[M:7/8] x7 |[M:3/4] x6 | x6 |] %20
V:4
 x6 | x6 | x6 | x6 | x6 | x6 | x6 |[M:15/16] x15/2 |[M:3/4][K:treble] x6 | x6 | x3[K:bass] x3 | %11
 x6 | x6 | x6 | x6 | [E,G,E][E,G,E]- [E,G,E]3 z/ B,/ | x5[K:bass] x |[M:7/8] x7 |[M:3/4] x6 | x6 |] %20

